korla/apps/scalable/gnome-nibbles.svg

<svg width="64" height="64" xmlns="http://www.w3.org/2000/svg">
 <path d="m26 14a10.001 10.001 0 0 0-10 10v6h-2a10.001 10.001 0 0 0-10 10v2a10.001 10.001 0 0 0 10 10h36a10.001 10.001 0 0 0 10-10v-12a10.001 10.001 0 0 0-10-10h-0.839844a10.001 10.001 0 0 0-9.160156-6z" opacity=".2"/>
 <path d="m26 13a10.001 10.001 0 0 0-10 10v6h-2a10.001 10.001 0 0 0-10 10v2a10.001 10.001 0 0 0 10 10h36a10.001 10.001 0 0 0 10-10v-12a10.001 10.001 0 0 0-10-10h-0.839844a10.001 10.001 0 0 0-9.160156-6z" fill="#e4e4e4"/>
 <path d="m25 22v10h22v6h-34v4h38v-14h-22v-2h12v-4z" fill="#ee8827"/>
 <path d="m26 13a10.001 10.001 0 0 0-10 10v1a10.001 10.001 0 0 1 10-10h14a10.001 10.001 0 0 1 9.160156 6h0.839844a10.001 10.001 0 0 1 10 10v-1a10.001 10.001 0 0 0-10-10h-0.839844a10.001 10.001 0 0 0-9.160156-6zm-12 16a10.001 10.001 0 0 0-10 10v1a10.001 10.001 0 0 1 10-10h2v-1z" fill="#fff" opacity=".2"/>
</svg>

<svg xmlns="http://www.w3.org/2000/svg" width="64" height="64" version="1">
 <path style="opacity:0.2" d="M 26,14 A 10.001,10.001 0 0 0 16,24 v 6 H 14 A 10.001,10.001 0 0 0 4,40 v 2 A 10.001,10.001 0 0 0 14,52 H 50 A 10.001,10.001 0 0 0 60,42 V 30 A 10.001,10.001 0 0 0 50,20 H 49.160156 A 10.001,10.001 0 0 0 40,14 Z"/>
 <path style="fill:#e4e4e4" d="M 26,13 A 10.001,10.001 0 0 0 16,23 v 6 H 14 A 10.001,10.001 0 0 0 4,39 v 2 A 10.001,10.001 0 0 0 14,51 H 50 A 10.001,10.001 0 0 0 60,41 V 29 A 10.001,10.001 0 0 0 50,19 H 49.160156 A 10.001,10.001 0 0 0 40,13 Z"/>
 <path style="fill:#ee8827" d="m 25,22 v 1 9 h 22 v 6 H 13 v 4 H 51 V 28 H 29 v -2 h 12 v -4 z"/>
 <path style="opacity:0.2;fill:#ffffff" d="M 26 13 A 10.001 10.001 0 0 0 16 23 L 16 24 A 10.001 10.001 0 0 1 26 14 L 40 14 A 10.001 10.001 0 0 1 49.160156 20 L 50 20 A 10.001 10.001 0 0 1 60 30 L 60 29 A 10.001 10.001 0 0 0 50 19 L 49.160156 19 A 10.001 10.001 0 0 0 40 13 L 26 13 z M 14 29 A 10.001 10.001 0 0 0 4 39 L 4 40 A 10.001 10.001 0 0 1 14 30 L 16 30 L 16 29 L 14 29 z"/>
</svg>
